icons/grid/grid-3x3.svg

<svg width="14" height="14" viewBox="0 0 14 14" fill="none" xmlns="http://www.w3.org/2000/svg">
<path d="M5.66 11H4C3.44772 11 3 10.5523 3 10V8.34M5.66 11V3M5.66 11H8.34M5.66 3H4C3.44771 3 3 3.44772 3 4V5.66M5.66 3H8.34M8.34 3H10C10.5523 3 11 3.44771 11 4V5.66M8.34 3V11M8.34 11H10C10.5523 11 11 10.5523 11 10V8.34M3 5.66H11M3 5.66V8.34M11 5.66V8.34M3 8.34H11" stroke="red" stroke-linejoin="round"/>
</svg>

<svg xmlns="http://www.w3.org/2000/svg" width="14" height="14" fill="none" viewBox="0 0 14 14"><path stroke="red" stroke-linejoin="round" d="M5.66 11H4a1 1 0 0 1-1-1V8.34M5.66 11V3m0 8h2.68M5.66 3H4a1 1 0 0 0-1 1v1.66M5.66 3h2.68m0 0H10a1 1 0 0 1 1 1v1.66M8.34 3v8m0 0H10a1 1 0 0 0 1-1V8.34M3 5.66h8m-8 0v2.68m8-2.68v2.68m-8 0h8"/></svg>
